X: 14
T: Goin' Down South #1
I: Goin' Down South	S-G	D/E/F	square
M: C|
Z: Transcribed to abc by Mary Lou Knack
R: square
C: arr: T. Saletan S-G
P: Intro
K: D
"D"A2 A4 B2| A8| "G"A2G2 G2B2| d4 D2E2| "D"F4 A4| "A7"F4 E4| "D"D8| z8|]
% %vskip .5cm
|:\
"D"A2 A4 B2| A8| F2 F4 G2| F8| "A7"F2E2 E2^D2| E4 FE| "G"D2D2- "A7"D2B,2| "D"A,8|
"D"A2 A4 B2| A8| F2 F4 G2| F8| "A"E4 A4| "E7"^G4 B4| "A"A8| z2F2 "A7"G2^G2|
"D"A2 A4 B2| A8| F2 F4 G2| F8| "A7"F2E2 E2^D2| E4 F2E2| "G"D2D2- "A7"D2B,2| "D"A,8|
"D"A2 A4 B2| A8| "G"A2G2 G2B2| "Ddim7"d4 D2E2| "D"F4 A4| "A7"F4 E4| "D"D8| \
"         (4x)"z8:| [K:E]
% %vskip .5cm
|:\
"E"B2 B4 c2| B8| G2 G4 A2| G8| "B7"G2F2 F2=F2| F4 G2F2| "A"E2E2- "B7"E2C2| "E"B,8|
"E"B2 B4 c2| B8| G2 G4 A2| G8| "B"F4 B4| "F#7"^A4 c4| "B"B8| z2G2 "B7"A2^A2|
"E"B2 B4 c2| B8| G2 G4 A2| G8| "B7"G2F2 F2=F2| F4 G2F2| "A"E2E2- "B7"E2C2| "E"B,8|
"E"B2 B4 c2| B8| "A"B2A2 A2c2| "Edim7"e4 E2F2| "E"G4 B4| "B7"G4 F4| "E"E8| \
"         (2x)"z8:| [K:F]
% %vskip .5 cm
\
"F"c2 c4 d2| c8| A2 A4 B2| A8| "C7"A2G2 G2_G2| G4 A2G2| "F"F2F2- "Bb"F2D2| "F"C8|
"F"c2 c4 d2| c8| A2 A4 B2| A8| "C"G4 c4| "G7"=B4 d4|"C"c8| z2A2 "C7"B2=B2|
"F"c2 c4 d2| c8| A2 A4 B2| A8| "C7"A2G2 G2_G2| G4 A2G2| "F"F2F2- "Bb"F2D2| "F"C8|
"F"c2 c4 d2| c8| "Bb"c2B2 B2d2| "Fdim7"f4 F2G2| "F"A4 c4| "C7"A4 F2G2| "F"A4 c4| "C7"A4 F2G2| \
"F"A4 c4| "C7"A4 G4| "F"F8| z8 |]
% %$1text 9/1/98

#include "LeftHeader.h"
